src/icons/SVG/24px/Universe_Curtains_24px.svg

<svg width="24" height="24" viewBox="0 0 24 24" fill="none" xmlns="http://www.w3.org/2000/svg">
<g id="Square"> </g>
<g id="Icon">
<path id="Union" fill-rule="evenodd" clip-rule="evenodd" d="M3 2C2.44772 2 2 2.44772 2 3C2 3.55228 2.44772 4 3 4H4V14V21C4 21.5523 4.44772 22 5 22H9C9.31379 22 9.60939 21.8527 9.79835 21.6022C9.98731 21.3517 10.0477 21.027 9.96152 20.7253L9.89716 20.5H14.1028L14.0385 20.7253C13.9523 21.027 14.0127 21.3517 14.2017 21.6022C14.3906 21.8527 14.6862 22 15 22H19C19.5523 22 20 21.5523 20 21V14V4H21C21.5523 4 22 3.55228 22 3C22 2.44772 21.5523 2 21 2H19H12H5H3ZM14.6743 18.5L15.5314 15.5H12.5V18.5H14.6743ZM11.5 18.5V15.5H8.46859L9.32573 18.5H11.5ZM11.5 14.5H8.72058C9.19808 14.2455 9.72452 13.8646 10.2399 13.2977C10.6886 12.8041 11.1185 12.1819 11.5 11.3978V14.5ZM15.2794 14.5H12.5V11.3978C12.8815 12.1819 13.3114 12.8041 13.7601 13.2977C14.2755 13.8646 14.8019 14.2455 15.2794 14.5ZM6 13V4H10.9852C10.8437 8.67958 9.71246 10.9047 8.76006 11.9523C8.25157 12.5117 7.76591 12.7686 7.437 12.8892C7.27008 12.9505 7.13874 12.9782 7.05961 12.9906C7.02007 12.9969 6.99381 12.9992 6.98302 13L6.98291 13H6ZM18 4H13.0148C13.1563 8.67958 14.2875 10.9047 15.2399 11.9523C15.7484 12.5117 16.2341 12.7686 16.563 12.8892C16.7299 12.9505 16.8613 12.9782 16.9404 12.9906C16.9799 12.9969 17.0062 12.9992 17.017 13L17.0171 13H18V4ZM16.3257 20L17.7543 15H18V20H16.3257ZM6 15H6.2457L7.67427 20H6V15Z" fill="black"/>
</g>
</svg>

<svg xmlns="http://www.w3.org/2000/svg" viewBox="0 0 24 24">
  <g id="Square"> </g>
  <path fill-rule="evenodd" d="M3 2a1 1 0 000 2h1v17a1 1 0 001 1h4a1 1 0 00.962-1.275l-.065-.225h4.206l-.064.225A1 1 0 0015 22h4a1 1 0 001-1V4h1a1 1 0 100-2H3zm11.674 16.5l.857-3H12.5v3h2.174zm-3.174 0v-3H8.469l.857 3H11.5zm0-4H8.72a5.65 5.65 0 001.52-1.202 8.004 8.004 0 001.26-1.9V14.5zm3.78 0H12.5v-3.102a8.004 8.004 0 001.26 1.9 5.65 5.65 0 001.52 1.202zM6 13V4h4.985c-.141 4.68-1.273 6.905-2.225 7.952-.508.56-.994.817-1.323.937a2.014 2.014 0 01-.454.111H6zm12-9h-4.985c.141 4.68 1.272 6.905 2.225 7.952.508.56.994.817 1.323.937a2.015 2.015 0 00.454.111H18V4zm-1.674 16l1.428-5H18v5h-1.674zM6 15h.246l1.428 5H6v-5z"/>
</svg>
